X:216
T: Ritou luo shan yi dian hong
N: C1708
O: China,Taiwan, Xinzhu, Zhongli, Taoyuan
S: IV, 642]
R: Shange, Shangezai]
M: 2/4
L: 1/16
K: G
B2B2e4 | e2B6 | G2E6 | E2E^DE2GB | E2G6 | E8 |
B,2B,6 | EGAGE4 | E2B,6 | B2E2G2B2 | ^D2E6 | B,8- | B,8 |
B2B6 | E2G6 | B,4z4 | E2^D2(3E2G2B2 | B2E2G4 |
E2B,2B,4 | E2G6 | E2B,6 | B2e2b2z2 | e8- | e8

@@@ Tune index: 6771
